img/svg/stone-shape-13.svg

<svg width="36" height="36" viewBox="0 0 36 36" fill="none" xmlns="http://www.w3.org/2000/svg">
<mask id="path-1-inside-1_615_12474" fill="white">
<path d="M27.473 3L33 8.527V27.6L27.473 33.127H8.527L3 27.6V8.527L8.527 3H27.473ZM27.887 2H8.113L2 8.113V28.013L8.113 34.126H27.887L34 28.012V8.113L27.887 2Z"/>
</mask>
<path d="M27.473 3L33 8.527V27.6L27.473 33.127H8.527L3 27.6V8.527L8.527 3H27.473ZM27.887 2H8.113L2 8.113V28.013L8.113 34.126H27.887L34 28.012V8.113L27.887 2Z" fill="#A39D94"/>
<path d="M27.473 3L28.1801 2.29289L27.8872 2H27.473V3ZM33 8.527H34V8.11279L33.7071 7.81989L33 8.527ZM33 27.6L33.7071 28.3071L34 28.0142V27.6H33ZM27.473 33.127V34.127H27.8872L28.1801 33.8341L27.473 33.127ZM8.527 33.127L7.81989 33.8341L8.11279 34.127H8.527V33.127ZM3 27.6H2V28.0142L2.29289 28.3071L3 27.6ZM3 8.527L2.29289 7.81989L2 8.11279V8.527H3ZM8.527 3V2H8.11279L7.81989 2.29289L8.527 3ZM27.887 2L28.5941 1.29289L28.3012 1H27.887V2ZM8.113 2V1H7.69879L7.40589 1.29289L8.113 2ZM2 8.113L1.29289 7.40589L1 7.69879V8.113H2ZM2 28.013H1V28.4272L1.29289 28.7201L2 28.013ZM8.113 34.126L7.40589 34.8331L7.69879 35.126H8.113V34.126ZM27.887 34.126V35.126H28.3013L28.5942 34.833L27.887 34.126ZM34 28.012L34.7072 28.719L35 28.4262V28.012H34ZM34 8.113H35V7.69879L34.7071 7.40589L34 8.113ZM26.7659 3.70711L32.2929 9.23411L33.7071 7.81989L28.1801 2.29289L26.7659 3.70711ZM32 8.527V27.6H34V8.527H32ZM32.2929 26.8929L26.7659 32.4199L28.1801 33.8341L33.7071 28.3071L32.2929 26.8929ZM27.473 32.127H8.527V34.127H27.473V32.127ZM9.23411 32.4199L3.70711 26.8929L2.29289 28.3071L7.81989 33.8341L9.23411 32.4199ZM4 27.6V8.527H2V27.6H4ZM3.70711 9.23411L9.23411 3.70711L7.81989 2.29289L2.29289 7.81989L3.70711 9.23411ZM8.527 4H27.473V2H8.527V4ZM27.887 1H8.113V3H27.887V1ZM7.40589 1.29289L1.29289 7.40589L2.70711 8.82011L8.82011 2.70711L7.40589 1.29289ZM1 8.113V28.013H3V8.113H1ZM1.29289 28.7201L7.40589 34.8331L8.82011 33.4189L2.70711 27.3059L1.29289 28.7201ZM8.113 35.126H27.887V33.126H8.113V35.126ZM28.5942 34.833L34.7072 28.719L33.2928 27.305L27.1798 33.419L28.5942 34.833ZM35 28.012V8.113H33V28.012H35ZM34.7071 7.40589L28.5941 1.29289L27.1799 2.70711L33.2929 8.82011L34.7071 7.40589Z" fill="#A39D94" mask="url(#path-1-inside-1_615_12474)"/>
<path d="M8.5 2.5L11 11" stroke="#A39D94" stroke-miterlimit="10"/>
<path d="M25 11L27.5 2.5" stroke="#A39D94" stroke-miterlimit="10"/>
<path d="M33.5 8.5L25 11" stroke="#A39D94" stroke-miterlimit="10"/>
<path d="M2.5 8.5L11 11" stroke="#A39D94" stroke-miterlimit="10"/>
<path d="M25 25L33.5 27.5" stroke="#A39D94" stroke-miterlimit="10"/>
<path d="M27.5 33.5L25 25" stroke="#A39D94" stroke-miterlimit="10"/>
<path d="M8.5 33.5L11 25" stroke="#A39D94" stroke-miterlimit="10"/>
<path d="M2.5 27.5L11 25" stroke="#A39D94" stroke-miterlimit="10"/>
<path d="M31 27V9L27 5H9L5 9V27L9 31H27L31 27ZM31 27L27 18L25 11L18 9L9 5" stroke="#A39D94" stroke-miterlimit="10"/>
<path d="M27 5L18 9L11 11L10 18L11 25L18 27L27 31" stroke="#A39D94" stroke-miterlimit="10"/>
<path d="M31 9L27 18L25 25L18 27L9 31" stroke="#A39D94" stroke-miterlimit="10"/>
<path d="M5 9L10 18L5 27" stroke="#A39D94" stroke-miterlimit="10"/>
</svg>

<svg width="36" height="36" viewBox="0 0 36 36" fill="none" xmlns="http://www.w3.org/2000/svg"><mask id="path-1-inside-1_615_12474" fill="#fff"><path d="M27.473 3L33 8.527V27.6l-5.527 5.527H8.527L3 27.6V8.527L8.527 3h18.946zm.414-1H8.113L2 8.113v19.9l6.113 6.113h19.774L34 28.012V8.113L27.887 2z"/></mask><path d="M27.473 3L33 8.527V27.6l-5.527 5.527H8.527L3 27.6V8.527L8.527 3h18.946zm.414-1H8.113L2 8.113v19.9l6.113 6.113h19.774L34 28.012V8.113L27.887 2z" fill="#A39D94"/><path d="M27.473 3l.707-.707L27.887 2h-.414v1zM33 8.527h1v-.414l-.293-.293-.707.707zM33 27.6l.707.707.293-.293V27.6h-1zm-5.527 5.527v1h.414l.293-.293-.707-.707zm-18.946 0l-.707.707.293.293h.414v-1zM3 27.6H2v.414l.293.293L3 27.6zM3 8.527l-.707-.707L2 8.113v.414h1zM8.527 3V2h-.414l-.293.293.707.707zm19.36-1l.707-.707L28.301 1h-.414v1zM8.113 2V1h-.414l-.293.293.707.707zM2 8.113l-.707-.707L1 7.699v.414h1zm0 19.9H1v.414l.293.293.707-.707zm6.113 6.113l-.707.707.293.293h.414v-1zm19.774 0v1h.414l.293-.293-.707-.707zM34 28.012l.707.707.293-.293v-.414h-1zm0-19.899h1v-.414l-.293-.293-.707.707zm-7.234-4.406l5.527 5.527 1.414-1.414-5.527-5.527-1.414 1.414zM32 8.527V27.6h2V8.527h-2zm.293 18.366l-5.527 5.527 1.414 1.414 5.527-5.527-1.414-1.414zm-4.82 5.234H8.527v2h18.946v-2zm-18.239.293l-5.527-5.527-1.414 1.414 5.527 5.527 1.414-1.414zM4 27.6V8.527H2V27.6h2zM3.707 9.234l5.527-5.527L7.82 2.293 2.293 7.82l1.414 1.414zM8.527 4h18.946V2H8.527v2zm19.36-3H8.113v2h19.774V1zm-20.481.293L1.293 7.406 2.707 8.82 8.82 2.707 7.406 1.293zM1 8.113v19.9h2v-19.9H1zm.293 20.607l6.113 6.113L8.82 33.42l-6.113-6.113-1.414 1.414zm6.82 6.406h19.774v-2H8.113v2zm20.481-.293l6.113-6.114-1.414-1.414-6.113 6.114 1.414 1.414zM35 28.012V8.113h-2v19.899h2zm-.293-20.606l-6.113-6.113-1.414 1.414 6.113 6.113 1.414-1.414z" fill="#A39D94" mask="url(#path-1-inside-1_615_12474)"/><path d="M8.5 2.5L11 11m14 0l2.5-8.5m6 6L25 11M2.5 8.5L11 11m14 14l8.5 2.5m-6 6L25 25M8.5 33.5L11 25m-8.5 2.5L11 25m20 2V9l-4-4H9L5 9v18l4 4h18l4-4zm0 0l-4-9-2-7-7-2-9-4" stroke="#A39D94" stroke-miterlimit="10"/><path d="M27 5l-9 4-7 2-1 7 1 7 7 2 9 4" stroke="#A39D94" stroke-miterlimit="10"/><path d="M31 9l-4 9-2 7-7 2-9 4M5 9l5 9-5 9" stroke="#A39D94" stroke-miterlimit="10"/></svg>
